X: 1
T: Missa Adieu mes amours / Kyrie
N: Derived from Obr1001a-Missa_Adieu_mes_amours-Kyrie.krn
C: Jacob Obrecht
%%abc-version 2.0
%%abcx-abcm2ps-target-version 5.9.1 (29 Sep 2008)
%%abc-creator hum2abc beta
%%abcx-conversion-date 2019/02/17 07:23:44
%%abc-edited-by Jesse Rodin
%%abc-edited-by Chris Gage 09-06-2012
%%abcx-initial-encoding-date 2012/09/18/
%%humdrum-veritas 223516658
%%humdrum-veritas-data 354111073
%%linebreak <none>
%%barnumbers 0
L: 1/4
M: 2/1
Q: 1/2=120
%%staves [1 2 3 4]
V: 1 clef=treble
V: 2 clef=treble-8
V: 3 clef=treble-8
V: 4 clef=bass
K: F
[V:1] z8 | 
[V:2] z8 | 
[V:3] z8 | 
[V:4] G,,4B,,4 | 
[V:1] z8 | 
[V:2] z4G4 | 
[V:3] z8 | 
[V:4] A,,4G,,4 | 
[V:1] z8 | 
[V:2] B4A4 | 
[V:3] z8 | 
[V:4] D,8 | 
[V:1] G4B4 | 
[V:2] G4d4- | 
[V:3] z8 | 
[V:4] z8 | 
[V:1] A4G4 | 
[V:2] d2c3BB2- | 
[V:3] z8 | 
[V:4] z8 | 
[V:1] d8 | 
[V:2] B2AGF2G2- | 
[V:3] z8 | 
[V:4] G,,4B,,4 | 
[V:1] c4B2B2- | 
[V:2] G2^F2G4 | 
[V:3] z4G4 | 
[V:4] A,,4G,,4 | 
[V:1] B2AGF4 | 
[V:2] D4F4 | 
[V:3] B4A4 | 
[V:4] D,8 | 
[V:1] G3AB2A2- | 
[V:2] E4D4 | 
[V:3] G4d4- | 
[V:4] z8 | 
[V:1] A2GFE4 | 
[V:2] A8 | 
[V:3] d4c4 | 
[V:4] z8 | 
[V:1] D6F2- | 
[V:2] z4F3G | 
[V:3] B2B4AG | 
[V:4] G,,4B,,4 | 
[V:1] F2EDE2D2- | 
[V:2] A4B4- | 
[V:3] F4G4 | 
[V:4] A,,4G,,4 | 
[V:1] D2G4F2 | 
[V:2] B2d3cBA | 
[V:3] B4A4 | 
[V:4] D,8 | 
[V:1] G4B3A/B/ | 
[V:2] B2B4AG | 
[V:3] G4d4- | 
[V:4] z8 | 
[V:1] A2G2A4 | 
[V:2] F2G4^F2 | 
[V:3] d4c4 | 
[V:4] z8 | 
[V:1] G4z2D2 | 
[V:2] G4d4 | 
[V:3] B3AF2G2- | 
[V:4] G,,4B,,4 | 
[V:1] E2F4E2 | 
[V:2] c4B4 | 
[V:3] G2F2G4 | 
[V:4] A,,4G,,4 | 
[V:1] F2D4CB, | 
[V:2] A4B2A2- | 
[V:3] F8- | 
[V:4] D,8 | 
[V:1] A,2D4CB, | 
[V:2] AGFED2F2 | 
[V:3] F8 | 
[V:4] z8 | 
[V:1] C4D4 | 
[V:2] E4D4 | 
[V:3] z8 | 
[V:4] z8 | 
[V:1] z2G4FE | 
[V:2] z8 | 
[V:3] z8 | 
[V:4] G,,4B,,4 | 
[V:1] F4G4 | 
[V:2] z4z2G2- | 
[V:3] z8 | 
[V:4] A,,4G,,4 | 
[V:1] z8 | 
[V:2] G2FEF4 | 
[V:3] z8 | 
[V:4] D,8 | 
[V:1] z2G4FE | 
[V:2] G4z4 | 
[V:3] G4B4 | 
[V:4] z8 | 
[V:1] F4G4 | 
[V:2] z8 | 
[V:3] A4G4 | 
[V:4] z8 | 
[V:1] z8 | 
[V:2] z2G4FE | 
[V:3] d8 | 
[V:4] G,,4B,,4 | 
[V:1] z4z2G2- | 
[V:2] F4G4 | 
[V:3] c3d_e2d2- | 
[V:4] A,,4G,,4 | 
[V:1] G2^FEF4 | 
[V:2] A4d4 | 
[V:3] d2cBA4 | 
[V:4] D,8 | 
[V:1] G8- | 
[V:2] B4B2G2- | 
[V:3] G8- | 
[V:4] G,,8- | 
[V:1] G8- | 
[V:2] GF_ED_E4 | 
[V:3] G8- | 
[V:4] G,,8- | 
[V:1] G8 ||  
[V:2] D8 ||  
[V:3] G8 ||  
[V:4] G,,8 ||  
[V:1]  [K:F] [K:clef=treble][M:2/1]z8 | 
[V:2]  [K:F] [K:clef=treble-8][M:2/1]z8 | 
[V:3]  [K:F] [K:clef=treble-8][M:2/1]G8- | 
[V:4]  [K:F] [K:clef=bass][M:2/1]G,,6A,,2 | 
[V:1] z8 | 
[V:2] z8 | 
[V:3] G8- | 
[V:4] B,,4C,4 | 
[V:1] z8 | 
[V:2] z8 | 
[V:3] G8 | 
[V:4] B,,2C,3B,,A,,G,, | 
[V:1] z8 | 
[V:2] z8 | 
[V:3] A8- | 
[V:4] F,,4D,4 | 
[V:1] z8 | 
[V:2] z8 | 
[V:3] A8 | 
[V:4] C,2D,3C,B,,A,, | 
[V:1] z8 | 
[V:2] z8 | 
[V:3] B8- | 
[V:4] G,,4G,4- | 
[V:1] z8 | 
[V:2] z8 | 
[V:3] B8 | 
[V:4] G,2F,E,D,4- | 
[V:1] z8 | 
[V:2] z8 | 
[V:3] A8 | 
[V:4] D,4F,4 | 
[V:1] z8 | 
[V:2] z8 | 
[V:3] G4A4- | 
[V:4] E,4D,4 | 
[V:1] z8 | 
[V:2] z8 | 
[V:3] A2G2G4- | 
[V:4] C,4B,,4 | 
[V:1] z8 | 
[V:2] z8 | 
[V:3] G4^F4 | 
[V:4] A,,8 | 
[V:1] z8 | 
[V:2] z8 | 
[V:3] G4B4 | 
[V:4] G,,2B,,3A,,G,,2- | 
[V:1] z8 | 
[V:2] z8 | 
[V:3] A4G4 | 
[V:4] G,,2^F,,2G,,4 | 
[V:1] z8 | 
[V:2] z8 | 
[V:3] d8- | 
[V:4] G,2B,3A,G,2- | 
[V:1] z8 | 
[V:2] z8 | 
[V:3] d8- | 
[V:4] G,2^F,2G,4 | 
[V:1] z8 | 
[V:2] z8 | 
[V:3] d8 | 
[V:4] D,2F,4_E,D, | 
[V:1] z8 | 
[V:2] z8 | 
[V:3] c2B4AG | 
[V:4] _E,2D,2E,4 | 
[V:1] z8 | 
[V:2] z8 | 
[V:3] F8- | 
[V:4] D,6B,,2- | 
[V:1] z8 | 
[V:2] z8 | 
[V:3] F8 | 
[V:4] B,,2A,,2B,,3A,, | 
[V:1] z8 | 
[V:2] z8 | 
[V:3] z4F4 | 
[V:4] F,,3G,,A,,2B,,2- | 
[V:1] z8 | 
[V:2] z8 | 
[V:3] G4A4 | 
[V:4] B,,G,,G,,4^F,,2 | 
[V:1] z8 | 
[V:2] z8 | 
[V:3] B4G4 | 
[V:4] G,,4z4 | 
[V:1] z8 | 
[V:2] z8 | 
[V:3] z4G4 | 
[V:4] G,,3A,,B,,2C,2- | 
[V:1] z8 | 
[V:2] z8 | 
[V:3] A4B4 | 
[V:4] C,A,,A,,4G,,2 | 
[V:1] z8 | 
[V:2] z8 | 
[V:3] c4A4 | 
[V:4] A,,4z4 | 
[V:1] z8 | 
[V:2] z8 | 
[V:3] z4A4 | 
[V:4] A,,3B,,C,2D,2- | 
[V:1] z8 | 
[V:2] z8 | 
[V:3] B4c4 | 
[V:4] D,B,,B,,4A,,2 | 
[V:1] z8 | 
[V:2] z8 | 
[V:3] d4B4 | 
[V:4] B,,4z4 | 
[V:1] z8 | 
[V:2] z8 | 
[V:3] z4B4 | 
[V:4] B,,3C,D,2_E,2- | 
[V:1] z8 | 
[V:2] z8 | 
[V:3] c4d4 | 
[V:4] E,C,C,4=B,,2 | 
[V:1] z8 | 
[V:2] z8 | 
[V:3] _e4c4 | 
[V:4] C,4z4 | 
[V:1] z8 | 
[V:2] z8 | 
[V:3] z4c4 | 
[V:4] C,3D,E,2F,2- | 
[V:1] z8 | 
[V:2] z8 | 
[V:3] d4e4 | 
[V:4] F,D,D,4^C,2 | 
[V:1] z8 | 
[V:2] z8 | 
[V:3] f4d4- | 
[V:4] D,4D,3E, | 
[V:1] z8 | 
[V:2] z8 | 
[V:3] d4g4- | 
[V:4] F,2G,3A,B,2- | 
[V:1] z8 | 
[V:2] z8 | 
[V:3] g4^f4 | 
[V:4] B,2A,G,A,4 | 
[V:1] z4G4 | 
[V:2] z8 | 
[V:3] g4z2g2- | 
[V:4] G,6F,E, | 
[V:1] A4B4 | 
[V:2] z8 | 
[V:3] g2f2g2e2- | 
[V:4] D,4G,,4 | 
[V:1] c4A4 | 
[V:2] z8 | 
[V:3] e2c2d4 | 
[V:4] z4D,4 | 
[V:1] z4A4 | 
[V:2] z8 | 
[V:3] B2c4BA | 
[V:4] E,4F,4 | 
[V:1] B4c4 | 
[V:2] z8 | 
[V:3] G2g4e2 | 
[V:4] G,4E,4 | 
[V:1] d3cB2A2- | 
[V:2] z8 | 
[V:3] f4g2d2- | 
[V:4] D,4G,3F,/E,/ | 
[V:1] AGG4^F2 | 
[V:2] z8 | 
[V:3] dcB2A4 | 
[V:4] F,2G,2D,4 | 
[V:1] G8 ||  
[V:2] z8 ||  
[V:3] G8 ||  
[V:4] G,,8 ||  
[V:1]  [K:F] [K:clef=treble][M:3/1]G8A4 | 
[V:2]  [K:F] [K:clef=treble-8][M:3/1]d6_e4dc | 
[V:3]  [K:F] [K:clef=treble-8][M:3/1]z12 | 
[V:4]  [K:F] [K:clef=bass][M:3/1]G,,3A,,B,,2C,4B,,A,, | 
[V:1] B6A2G4 | 
[V:2] d6_e3dcB | 
[V:3] G12 | 
[V:4] G,,3A,,B,,2C,3D,E,2 | 
[V:1] F2D2G8 | 
[V:2] A2B3AGFG4 | 
[V:3] d8c4 | 
[V:4] F,2G,3F,E,D,E,4 | 
[V:1] F8z4 | 
[V:2] A6GFG2F2- | 
[V:3] d8c4 | 
[V:4] D,4F,3E,/D,/E,2D,2- | 
[V:1] z4F2G2A4 | 
[V:2] F2E2F2D4C2 | 
[V:3] B2A3GG4^F2 | 
[V:4] D,2C,2D,2B,,2A,,4 | 
[V:1] B2G3FEDC4 | 
[V:2] D4E8 | 
[V:3] G12 | 
[V:4] G,,6C,4B,,A,, | 
[V:1] D2E4DCD4 | 
[V:2] D2G3AB3AG2 | 
[V:3] z4z4G4 | 
[V:4] B,,2C,2G,,2G,4F,E, | 
[V:1] z2G2A2F2G4 | 
[V:2] A2B4A4G2 | 
[V:3] d8c4 | 
[V:4] F,2G,2D,2F,2_E,4 | 
[V:1] FEDCB,2B4A2 | 
[V:2] A2B2F4z2f2 | 
[V:3] d8c4 | 
[V:4] D,2B,,3C,D,E,F,3E,/F,/ | 
[V:1] B2A3GG4^F2 | 
[V:2] d2_e3dcBd4- | 
[V:3] B2c3BAGA4 | 
[V:4] G,2C,2_E,4D,4 | 
[V:1] G4z4G4- | 
[V:2] d4B4G2B2- | 
[V:3] G8z4 | 
[V:4] G,,6B,,4G,,2- | 
[V:1] G2B4G4^F2 | 
[V:2] B2G3ABcd4- | 
[V:3] G4B4A4 | 
[V:4] G,,4G,3F,/E,/D,4 | 
[V:1] G2B3cd3cB2 | 
[V:2] d4B3AF2G2 | 
[V:3] G4d6cB | 
[V:4] z2G,,3A,,B,,C,D,2G,2 | 
[V:1] A2G3FF4E2 | 
[V:2] A2d2e2c6 | 
[V:3] c2B3AGFG4 | 
[V:4] F,2G,3E,F,2C,4 | 
[V:1] F4G6B2- | 
[V:2] A4G2B4G2- | 
[V:3] F4z4G4 | 
[V:4] z4G,,4B,,4 | 
[V:1] B2G4^F2G2B2- | 
[V:2] G2d6B3A | 
[V:3] B4A4G4 | 
[V:4] G,,4D,4G,,4- | 
[V:1] Bcd3cB2c2A2- | 
[V:2] G2F2B4A4- | 
[V:3] d8c4- | 
[V:4] G,,2B,,3C,D,B,,F,4- | 
[V:1] AGB3AG4^F2 | 
[V:2] A2d4c2d4- | 
[V:3] c2B2G4A4 | 
[V:4] F,2G,3F,E,2D,4 | 
[V:1] G12 |]  
[V:2] d12 |]  
[V:3] G12 |]  
[V:4] G,,12 |]  



